public/svgs/solid/naira-sign.svg

<svg xmlns="http://www.w3.org/2000/svg" viewBox="0 0 448 512"><!--! Font Awesome Pro 6.0.0-alpha3 by @fontawesome - https://fontawesome.com License - https://fontawesome.com/license (Commercial License) --><path d="M416 256h-32V64c0-17.69-14.31-32-32-32s-32 14.31-32 32v192h-57.54l-139.8-209.8C114.8 34.53 100.2 29.28 86.72 33.38C73.22 37.47 64 49.91 64 64v192H32C14.31 256 0 270.3 0 288s14.31 32 32 32h32v128c0 17.69 14.31 32 32 32s32-14.31 32-32v-128h100.2l97.17 145.8C331.4 474.8 341.5 480 352 480c3.094 0 6.219-.4375 9.281-1.375C374.8 474.5 384 462.1 384 448v-128h32c17.69 0 32-14.31 32-32S433.7 256 416 256zM128 256V169.7L185.5 256H128zM320 342.3L305.1 320H320V342.3z"/></svg>

<svg xmlns="http://www.w3.org/2000/svg" viewBox="0 0 448 512"><!--! Font Awesome Free 6.4.0 by @fontawesome - https://fontawesome.com License - https://fontawesome.com/license/free (Icons: CC BY 4.0, Fonts: SIL OFL 1.1, Code: MIT License) Copyright 2023 Fonticons, Inc. --><path d="M122.6 46.3c-7.8-11.7-22.4-17-35.9-12.9S64 49.9 64 64V256H32c-17.7 0-32 14.3-32 32s14.3 32 32 32H64V448c0 17.7 14.3 32 32 32s32-14.3 32-32V320H228.2l97.2 145.8c7.8 11.7 22.4 17 35.9 12.9s22.7-16.5 22.7-30.6V320h32c17.7 0 32-14.3 32-32s-14.3-32-32-32H384V64c0-17.7-14.3-32-32-32s-32 14.3-32 32V256H262.5L122.6 46.3zM305.1 320H320v22.3L305.1 320zM185.5 256H128V169.7L185.5 256z"/></svg>
